X:1
T:Title
%%score { ( 1 4 ) | ( 2 3 ) }
L:1/8
M:6/8
K:Bb
V:1 treble nm="Grand Piano"
V:4 treble 
V:2 bass 
V:3 bass 
V:1
 z3 z2[Q:1/4=100] [DF] | [DF]2 [DB] [Fd]>[Ec][DB] | [GB]>[FA][EG] [DF]2 [DB] | A2 A A>GA | %4
[M:5/8] [DB]-[DB]- [DB]3 |[M:1/8] [DF] |[M:3/4] [DF]2 [DB][Fd]- [Fd]/[Ec]/[DB] | %7
 [GB]>[FA] [EG] [DF]2 [DB] | [FA]2 [FA] [=Ec]2 [B,EG] | [A,F]6 | [Fd]2 [Fd][Fd]- [Fd]/c/[B,DB] | %11
 [Fc]6 | e2 ee- e/d/c |[M:5/8] d-d- d3[K:bass] |[M:1/8][K:treble] [DF] | %15
[M:3/4] [DF]2 [DB][Fd]- [Fd]/[Ec]/[DB] | [GB]>[FA] [EG] [DF]2 [DB] | A2 AA- A/G/A | %18
[M:13/8] [DB]-[DB]- [DB]3 z z z z z z z2 |] %19
V:2
 z3 z2 [B,,B,] | [B,,B,]2 [B,,F,] [B,,F,]2 [B,,B,] | [E,B,]2 [E,B,] [B,,B,]2 [B,,B,] | %3
 [F,CE]2 [F,CE] [F,CE]2 [F,CE] |[M:5/8] [B,,B,]-[B,,B,]- [B,,B,]3 |[M:1/8] [B,,B,] | %6
[M:3/4] [B,,B,]2 [B,,F,] [B,,F,]2 [B,,B,] | [E,B,]2 [E,B,] [B,,B,]2 [B,,F,] | %8
 [C,F,]2 .[C,F,]2 z/[K:treble] B/[K:bass]C, | F,6 | z2 z .B,3 | [F,A,]2 F, .F,3 | z2 z .C3 | %13
[M:5/8] [B,F]-[B,F]- [B,F]3 |[M:1/8][K:bass] [B,,B,] |[M:3/4] [B,,B,]2 [B,,F,] [B,,F,]2 [B,,B,] | %16
 [E,B,]2 [E,B,] [B,,B,]2 [B,,B,] | [F,CE]2 [F,CE] [F,CE]2 [F,CE] | %18
[M:13/8] [B,,B,]-[B,,B,]- [B,,B,]3 z z z z z z z2 |] %19
V:3
 x6 | x6 | x6 | x6 |[M:5/8] x5 |[M:1/8] x |[M:3/4] x6 | x6 | z2 z .[C,G,]3[K:treble][K:bass] | x6 | %10
 B,2 .B,2 z/ E/B,, | x6 | [F,CF]2 [F,CF][F,F]- [F,F]/-[F,B,F]/[F,A,F] |[M:5/8] x5 | %14
[M:1/8][K:bass] x |[M:3/4] x6 | x6 | x6 |[M:13/8] x13 |] %19
V:4
 x6 | x6 | x6 | x6 |[M:5/8] x5 |[M:1/8] x |[M:3/4] x6 | x6 | x6 | x6 | x6 | z2 A, .A,3 | x6 | %13
[M:5/8] z2 B,,[K:bass] B,,2 |[M:1/8][K:treble] x |[M:3/4] x6 | x6 | x6 |[M:13/8] x13 |] %19

